docs/.gitbook/assets/icon-flag-16@dark.svg

<svg width="32" height="32" viewBox="0 0 16 16" fill="none" xmlns="http://www.w3.org/2000/svg">
<rect x="0" y="0" width="16" height="16" fill="#181c1f"/>
<path fill-rule="evenodd" clip-rule="evenodd" d="M3.49995 1.75C3.49995 1.33579 3.16416 1 2.74995 1C2.33574 1 1.99995 1.33579 1.99995 1.75V3.15628C1.99969 3.16759 1.99969 3.17893 1.99995 3.19029V9.76615C1.99969 9.77746 1.99969 9.7888 1.99995 9.80015V14.25C1.99995 14.6642 2.33574 15 2.74995 15C3.16416 15 3.49995 14.6642 3.49995 14.25V10.3303C3.71589 10.2743 4.00131 10.2135 4.34436 10.17C5.1932 10.0623 6.38964 10.0607 7.76295 10.4945C9.39097 11.0626 10.8229 11.0642 11.854 10.9197C12.3701 10.8474 12.7866 10.7384 13.0791 10.6453C13.2255 10.5986 13.3413 10.5558 13.4236 10.5232C13.4647 10.5069 13.4975 10.4932 13.5216 10.4828L13.5434 10.4732C13.6842 10.4133 13.8029 10.3116 13.884 10.1836C13.9618 10.0602 14.0027 9.91569 14 9.7685V3.18629C14.0009 3.13966 13.9974 3.09265 13.9893 3.04585C13.969 2.92692 13.9207 2.81754 13.8515 2.72473C13.8092 2.66792 13.7598 2.61832 13.7051 2.57663C13.5917 2.48997 13.4529 2.43492 13.3018 2.42461C13.248 2.42084 13.1935 2.42285 13.1391 2.43099C13.0641 2.4421 12.9927 2.46433 12.9267 2.49593L12.9263 2.4961C12.9159 2.50057 12.8975 2.50838 12.8712 2.51877C12.8187 2.53957 12.7353 2.57066 12.6239 2.60615C12.4008 2.67721 12.0673 2.76533 11.6459 2.82439C10.8043 2.94233 9.61538 2.94426 8.24795 2.46514C8.24091 2.46268 8.23384 2.46032 8.22673 2.45806C6.60432 1.94341 5.17959 1.94211 4.15554 2.07205C3.91421 2.10267 3.69483 2.14061 3.49995 2.18093V1.75ZM3.49995 3.72044V8.79079C3.69483 8.75048 3.91421 8.71254 4.15554 8.68192C5.17959 8.55198 6.60432 8.55327 8.22673 9.06793C8.23384 9.07018 8.24091 9.07254 8.24795 9.07501C9.61538 9.55412 10.8043 9.55219 11.6459 9.43425C11.9953 9.38528 12.2843 9.31633 12.5 9.25369V4.19204C12.3073 4.23566 12.0912 4.27663 11.854 4.30987C10.8229 4.45438 9.39097 4.45279 7.76295 3.88461C6.38964 3.45086 5.1932 3.45241 4.34436 3.56012C4.00131 3.60365 3.71589 3.66444 3.49995 3.72044Z" fill="#fff"/>
</svg>

<svg xmlns="http://www.w3.org/2000/svg" width="32" height="32" fill="none" viewBox="0 0 16 16"><path fill="#181c1f" d="M0 0h16v16H0z"/><path fill="#fff" fill-rule="evenodd" d="M3.5 1.75a.75.75 0 0 0-1.5 0v12.5a.75.75 0 0 0 1.5 0v-3.92c.216-.056.501-.117.844-.16a8 8 0 0 1 3.419.325 8.7 8.7 0 0 0 4.091.425 7.5 7.5 0 0 0 1.225-.275 5 5 0 0 0 .443-.162l.021-.01A.75.75 0 0 0 14 9.768V3.186a.74.74 0 0 0-.149-.461.75.75 0 0 0-.924-.23v.001l-.056.023c-.052.02-.136.052-.247.087a6 6 0 0 1-.978.218 7.2 7.2 0 0 1-3.42-.366 9.5 9.5 0 0 0-4.07-.386c-.242.03-.461.069-.656.109zm0 1.97v5.07q.293-.06.656-.108a9.5 9.5 0 0 1 4.092.393 7.2 7.2 0 0 0 3.398.36c.35-.05.638-.119.854-.181V4.192a8 8 0 0 1-.646.118 8.7 8.7 0 0 1-4.091-.425 8 8 0 0 0-3.419-.325 7 7 0 0 0-.844.16" clip-rule="evenodd"/></svg>
